X: 4785
T: Boys Of Portaferry, The
R: reel
M: 4/4
K: Gmajor
G3B AGAB|GBAG GEDE|G2GB AGAB|dBGB c2BA|
G3B AGAB|GBAG GEDE|G2GB AGAB|dBAF GGG2|
Bdgd edgd|Bdgd edcA|Bdgd (3efg fa|gedB c2cA|
Bdgd edgd|Bdgd edcA|Bded gbaf|gbdB c2BA|

